packages/internal_wiki/src/data/svgs/DE296.svg

<?xml version="1.0" encoding="UTF-8" standalone="no"?>
<!-- Created with Inkscape (http://www.inkscape.org/) -->
<svg
   xmlns:svg="http://www.w3.org/2000/svg"
   xmlns="http://www.w3.org/2000/svg"
   version="1.0"
   width="1830"
   height="930"
   id="svg2">
  <defs
     id="defs4" />
  <g
     id="layer1">
    <path
       d="M 720.91007,50.869133 L 1107.5724,51.630765 L 1572.4397,878.65261 L 256.68876,877.88005 L 720.91007,50.869133 z "
       style="fill:#999;fill-opacity:1;fill-rule:evenodd;stroke:none;stroke-width:1px;stroke-linecap:butt;stroke-linejoin:miter;stroke-opacity:1"
       id="path1888" />
    <path
       d="M 888.00052,156.45953 L 882.76378,236.50676 L 905.20693,236.50676 L 906.70314,156.45953 L 888.00052,156.45953 z "
       style="fill:white;fill-opacity:1;fill-rule:evenodd;stroke:black;stroke-width:1px;stroke-linecap:butt;stroke-linejoin:miter;stroke-opacity:1"
       id="path1899" />
    <path
       d="M 5.3841466,876.37993 L 256.24949,876.37993 L 718.5819,52.379722 L 585.62038,52.379175 L 5.3841466,876.37993 z "
       style="fill:white;fill-opacity:1;fill-rule:evenodd;stroke:black;stroke-width:3;stroke-linecap:butt;stroke-linejoin:miter;stroke-miterlimit:4;stroke-dasharray:none;stroke-opacity:1"
       id="path1882" />
    <path
       d="M 1823.2885,877.15514 L 1572.4231,877.15514 L 1110.0907,53.154928 L 1244.9577,53.704033 L 1823.2885,877.15514 z "
       style="fill:white;fill-opacity:1;fill-rule:evenodd;stroke:black;stroke-width:3;stroke-linecap:butt;stroke-linejoin:miter;stroke-miterlimit:4;stroke-dasharray:none;stroke-opacity:1"
       id="path1884" />
    <path
       d="M 921.65683,833.84751 L 969.73308,833.84751 L 938.05325,51.768906 L 921.72712,51.737453 L 921.65683,833.84751 z "
       style="fill:white;fill-opacity:1;fill-rule:evenodd;stroke:black;stroke-width:1px;stroke-linecap:butt;stroke-linejoin:miter;stroke-opacity:1"
       id="path1891" />
    <path
       d="M 851.34338,837.9831 L 899.9702,837.9831 L 899.22209,678.63675 L 860.32064,678.63675 L 851.34338,837.9831 z "
       style="fill:white;fill-opacity:1;fill-rule:evenodd;stroke:black;stroke-width:1px;stroke-linecap:butt;stroke-linejoin:miter;stroke-opacity:1"
       id="path1893" />
    <path
       d="M 869.29789,475.15222 L 863.31306,576.89449 L 899.9702,576.89449 L 899.78158,475.15859 L 869.29789,475.15222 z "
       style="fill:white;fill-opacity:1;fill-rule:evenodd;stroke:black;stroke-width:1px;stroke-linecap:butt;stroke-linejoin:miter;stroke-opacity:1"
       id="path1895" />
    <path
       d="M 879.02326,295.60704 L 873.03842,387.62395 L 902.21451,387.62395 L 902.21451,295.61341 L 879.02326,295.60704 z "
       style="fill:white;fill-opacity:1;fill-rule:evenodd;stroke:black;stroke-width:1px;stroke-linecap:butt;stroke-linejoin:miter;stroke-opacity:1"
       id="path1897" />
    <path
       d="M 893.23725,61.450211 L 888.74862,104.09219 L 906.70314,104.09219 L 905.95503,61.450211 L 893.23725,61.450211 z "
       style="fill:white;fill-opacity:1;fill-rule:evenodd;stroke:black;stroke-width:1px;stroke-linecap:butt;stroke-linejoin:miter;stroke-opacity:1"
       id="path1901" />
  </g>
</svg>

<svg xmlns="http://www.w3.org/2000/svg" version="1.0" viewBox="0 0 1830 930" role="img" aria-labelledby="title">
  <title id="title">Verkehrszeichen 296 - Einseitige Fahrstreifenbegrenzung</title>
  <path d="m720.91 50.87 386.662.76 464.868 827.023-1315.751-.773z" style="fill:#999;fill-opacity:1;fill-rule:evenodd;stroke:none;stroke-width:1px;stroke-linecap:butt;stroke-linejoin:miter;stroke-opacity:1"/>
  <path d="m888 156.46-5.236 80.047h22.443l1.496-80.047z" style="fill:#fff;fill-opacity:1;fill-rule:evenodd;stroke:#000;stroke-width:1px;stroke-linecap:butt;stroke-linejoin:miter;stroke-opacity:1"/>
  <path d="M5.384 876.38H256.25l462.333-824H585.62zM1823.289 877.155h-250.866l-462.332-824 134.867.549z" style="fill:#fff;fill-opacity:1;fill-rule:evenodd;stroke:#000;stroke-width:3;stroke-linecap:butt;stroke-linejoin:miter;stroke-miterlimit:4;stroke-dasharray:none;stroke-opacity:1"/>
  <path d="M921.657 833.848h48.076l-31.68-782.08-16.326-.03zM851.343 837.983h48.627l-.748-159.346h-38.901zM869.298 475.152l-5.985 101.742h36.657l-.188-101.735zM879.023 295.607l-5.985 92.017h29.177v-92.01zM893.237 61.45l-4.488 42.642h17.954l-.748-42.642z" style="fill:#fff;fill-opacity:1;fill-rule:evenodd;stroke:#000;stroke-width:1px;stroke-linecap:butt;stroke-linejoin:miter;stroke-opacity:1"/>
</svg>
